X:3
T:Life of the Cause. JJo8.003, The
%%VWML:JohnsonVol8-2184-p2-0
F:http://www.vwml.org/record/JohnsonVol8/2184/p2
Z:Transcribed by Simon Furey and Lewis Jones
Z:vmp.Simon Wilson 2013 www.village-music-project.org.uk
Z:Dance added by John Chambers 2017
M:C|
L:1/4
%Q:1/2=100
K:A
|: c2BA | GBB/c/d | c2BA | GBef/g/ | acdc/B/ | cB/A/Ba | g/a/bB^d | eBE2 :|
|: B2cd | ceed/c/ | dfed/c/ | BGE2 | ce/c/df/d/ | ef/g/Ta2 | c/d/eEG | AEA,2 :|
W: First and 2d Cu. Right hands across
W:round .| Left hands back again :|
W:Lead down one Cu. up again and cast
W:off :||. Right hands and Left :||:
W:
T:Distiller. JJo8.004, The
B:J.Johnson Choice Collection Vol 8 1758
Z:vmp.Simon Wilson 2013 www.village-music-project.org.uk
Z:Dance added by John Chambers 2017
M:2/4
L:1/8
%Q:1/4=100
K:C
|: ef/g/ af | (ec)a2 | ef/g/ ac | e2a2 |\
   ef/g/ af | (ec)a2 | dB=gB | d2f2 :|
|: (eA)(cA) | eATc2 | (eA)(cA) | e2a2 |\
   (eA)(cA) | (eA)(cA) | (dB)(=gB) | d2f2 :|
W: First Cu. cross over and turn .|
W:Cast up and turn :| Lead down one
W:Cu. up again and cast off :||. Right
W:Hands and Left at top :||:
W:
